packages/core/src/svgs/fer.svg

<svg width="24" height="24" viewBox="0 0 24 24" fill="none" xmlns="http://www.w3.org/2000/svg">
<path d="M7.92871 10.2686C7.92871 8.54143 9.53585 7.5 11.0701 7.5H14.9744C15.5573 7.5 16.0716 7.97143 16.0716 8.59286C16.0716 9.22286 15.5444 9.64286 14.9744 9.64286H11.2501C11.0316 9.64286 10.723 9.70286 10.4744 9.84429C10.2344 9.98571 10.0716 10.1914 10.0716 10.5C10.071 10.7173 10.1531 10.9267 10.301 11.0858C10.449 11.245 10.6519 11.3419 10.8687 11.3571H14.1173C14.6359 11.3571 15.2144 11.7386 15.2144 12.4157C15.2144 12.9943 14.743 13.5 14.1173 13.5H10.8259C10.7359 13.5 10.6973 13.5171 10.6844 13.5257C10.4703 13.7984 10.2741 14.0847 10.0973 14.3829L10.0716 14.4429V16.2771C10.0716 16.8429 9.66014 17.3571 9.043 17.3571C8.75332 17.3573 8.47497 17.2446 8.26696 17.043C8.05894 16.8414 7.93762 16.5667 7.92871 16.2771V14.4343C7.92871 13.9843 8.083 13.5986 8.233 13.3029C8.37014 13.0414 8.54157 12.7929 8.66585 12.6129C8.67871 12.5914 8.69157 12.57 8.70871 12.5571C8.75157 12.4886 8.76443 12.4286 8.75585 12.3686C8.74452 12.2901 8.71518 12.2153 8.67014 12.15L8.51585 11.9314C8.22443 11.5029 7.92871 11.0829 7.92871 10.2686ZM11.0701 7.92857C9.68157 7.92857 8.35728 8.85857 8.35728 10.2686C8.35728 10.9414 8.57585 11.2586 8.863 11.6743L9.02585 11.9143C9.103 12.0343 9.16728 12.1714 9.18443 12.3257C9.20157 12.4843 9.163 12.6471 9.05585 12.7971L9.02157 12.8571C8.893 13.0371 8.73871 13.2643 8.61443 13.5C8.47728 13.7657 8.35728 14.0829 8.35728 14.4343V16.2771C8.35728 16.6286 8.67871 16.9286 9.043 16.9286C9.38585 16.9286 9.643 16.6457 9.643 16.2771V14.4343C9.643 14.3829 9.65585 14.34 9.66443 14.3057L9.71585 14.1943C9.75014 14.1171 9.80585 14.0229 9.87871 13.9071C10.0201 13.6843 10.1916 13.4614 10.3544 13.2471C10.4316 13.1486 10.5901 13.0714 10.8259 13.0714H14.1173C14.503 13.0714 14.7859 12.7629 14.7859 12.4157C14.7859 12.03 14.4601 11.7857 14.1173 11.7857H10.8687C10.5379 11.7713 10.2254 11.6294 9.99692 11.3897C9.76842 11.15 9.64158 10.8312 9.643 10.5C9.64284 10.2893 9.70024 10.0825 9.809 9.90196C9.91776 9.72144 10.0738 9.57406 10.2601 9.47571C10.563 9.30687 10.9034 9.21696 11.2501 9.21429H14.9787C15.3473 9.21429 15.643 8.95286 15.643 8.59286C15.643 8.22 15.3344 7.92857 14.9744 7.92857H11.0701Z" fill="url(#paint0_linear_31_10290)"/>
<path d="M11.0702 7.71436H14.9745C15.4459 7.71436 15.8574 8.09578 15.8574 8.59293C15.8574 9.08578 15.4459 9.42864 14.9745 9.42864H11.2502C10.7488 9.42864 9.85735 9.69007 9.85735 10.5001C9.85735 11.1429 10.3974 11.5715 10.8688 11.5715H14.1174C14.5459 11.5715 15.0002 11.8844 15.0002 12.4158C15.0002 12.8786 14.6231 13.2858 14.1174 13.2858H10.8259C10.6331 13.2858 10.5516 13.3501 10.5259 13.3801C10.3588 13.5944 10.1959 13.8086 10.0631 14.0229C9.92164 14.2458 9.85735 14.3744 9.85735 14.4344V16.2772C9.85735 16.7444 9.52307 17.1429 9.04307 17.1429C8.57164 17.1429 8.14307 16.7572 8.14307 16.2772V14.4344C8.14307 14.0358 8.28021 13.6801 8.42592 13.4015C8.57164 13.1229 8.75164 12.8658 8.88449 12.6772C9.03449 12.4629 8.97878 12.2358 8.84592 12.0344C8.49878 11.4986 8.14307 11.1429 8.14307 10.2644C8.14307 8.70007 9.60878 7.71436 11.0702 7.71436Z" fill="black"/>
<path fill-rule="evenodd" clip-rule="evenodd" d="M12.0001 18.8572C13.8187 18.8572 15.5628 18.1348 16.8488 16.8488C18.1348 15.5628 18.8572 13.8187 18.8572 12.0001C18.8572 10.1814 18.1348 8.4373 16.8488 7.15134C15.5628 5.86537 13.8187 5.14293 12.0001 5.14293C10.1814 5.14293 8.4373 5.86537 7.15134 7.15134C5.86537 8.4373 5.14293 10.1814 5.14293 12.0001C5.14293 13.8187 5.86537 15.5628 7.15134 16.8488C8.4373 18.1348 10.1814 18.8572 12.0001 18.8572ZM12.0001 19.2858C13.9324 19.2858 15.7855 18.5182 17.1518 17.1518C18.5182 15.7855 19.2858 13.9324 19.2858 12.0001C19.2858 10.0678 18.5182 8.21463 17.1518 6.84829C15.7855 5.48196 13.9324 4.71436 12.0001 4.71436C10.0678 4.71436 8.21463 5.48196 6.84829 6.84829C5.48196 8.21463 4.71436 10.0678 4.71436 12.0001C4.71436 13.9324 5.48196 15.7855 6.84829 17.1518C8.21463 18.5182 10.0678 19.2858 12.0001 19.2858Z" fill="black"/>
<defs>
<linearGradient id="paint0_linear_31_10290" x1="12.8573" y1="7.71429" x2="8.35728" y2="17.3571" gradientUnits="userSpaceOnUse">
<stop offset="0.01"/>
<stop offset="0.22" stop-color="#ECEBE9"/>
<stop offset="0.38" stop-color="#413D3E"/>
<stop offset="0.48" stop-color="#4F4B4C"/>
<stop offset="0.6" stop-color="#BEBFBF"/>
<stop offset="0.81" stop-color="#413D3E"/>
<stop offset="1" stop-color="#B3B3B3"/>
</linearGradient>
</defs>
</svg>

<svg xmlns="http://www.w3.org/2000/svg" width="24" height="24" fill="none" viewBox="0 0 24 24"><path fill="url(#a)" d="M7.929 10.269C7.929 8.54 9.536 7.5 11.07 7.5h3.904c.583 0 1.098.471 1.098 1.093 0 .63-.528 1.05-1.098 1.05H11.25c-.218 0-.527.06-.776.201-.24.142-.402.347-.402.656a.857.857 0 0 0 .797.857h3.248c.519 0 1.097.382 1.097 1.059 0 .578-.471 1.084-1.097 1.084h-3.291c-.09 0-.129.017-.142.026q-.321.409-.587.857l-.025.06v1.834c0 .566-.412 1.08-1.029 1.08a1.114 1.114 0 0 1-1.114-1.08v-1.843c0-.45.154-.835.304-1.131a7 7 0 0 1 .476-.746.27.27 0 0 0 .047-.188.5.5 0 0 0-.086-.219l-.154-.219c-.292-.428-.587-.848-.587-1.662m3.141-2.34c-1.388 0-2.713.93-2.713 2.34 0 .672.219.99.506 1.405l.163.24c.077.12.141.257.158.412a.67.67 0 0 1-.128.471l-.034.06a6 6 0 0 0-.408.643c-.137.266-.257.583-.257.934v1.843c0 .352.322.652.686.652.343 0 .6-.283.6-.652v-1.843c0-.051.013-.094.021-.128l.052-.112q.052-.114.163-.287c.141-.223.313-.446.475-.66.078-.098.236-.176.472-.176h3.291a.66.66 0 0 0 .669-.655c0-.386-.326-.63-.669-.63H10.87A1.28 1.28 0 0 1 9.643 10.5a1.16 1.16 0 0 1 .617-1.024c.303-.17.643-.259.99-.262h3.729c.368 0 .664-.261.664-.621a.67.67 0 0 0-.669-.664z"/><path fill="#000" d="M11.07 7.714h3.905c.47 0 .882.382.882.879 0 .493-.411.836-.882.836H11.25c-.501 0-1.393.261-1.393 1.071 0 .643.54 1.072 1.012 1.072h3.248c.429 0 .883.312.883.844 0 .463-.377.87-.883.87h-3.291c-.193 0-.274.064-.3.094-.167.214-.33.429-.463.643-.141.223-.206.351-.206.411v1.843c0 .467-.334.866-.814.866-.471 0-.9-.386-.9-.866v-1.843c0-.398.137-.754.283-1.032.146-.28.326-.536.458-.725.15-.214.095-.441-.038-.643-.347-.535-.703-.891-.703-1.77 0-1.564 1.466-2.55 2.927-2.55"/><path fill="#000" fill-rule="evenodd" d="M12 18.857a6.857 6.857 0 1 0 0-13.714 6.857 6.857 0 0 0 0 13.714m0 .429a7.285 7.285 0 1 0 0-14.57 7.285 7.285 0 0 0 0 14.57" clip-rule="evenodd"/><defs><linearGradient id="a" x1="12.857" x2="8.357" y1="7.714" y2="17.357" gradientUnits="userSpaceOnUse"><stop offset=".01"/><stop offset=".22" stop-color="#ECEBE9"/><stop offset=".38" stop-color="#413D3E"/><stop offset=".48" stop-color="#4F4B4C"/><stop offset=".6" stop-color="#BEBFBF"/><stop offset=".81" stop-color="#413D3E"/><stop offset="1" stop-color="#B3B3B3"/></linearGradient></defs></svg>
